packages/core/src/svgs/tokens/branded/XYO.svg

<svg width="24" height="24" viewBox="0 0 24 24" fill="none" xmlns="http://www.w3.org/2000/svg">
<path fill-rule="evenodd" clip-rule="evenodd" d="M6.93874 3.25H16.9793L22 11.9863L16.9793 20.75H6.93874L2 11.9863L6.93874 3.25ZM7.72441 4.70833H14.9182L9.09072 6.78019L7.72441 4.70833ZM7.32003 5.08707L3.88129 10.9577L8.47316 7.13519L7.32003 5.08707ZM17.5069 11.824L16.0943 5.03771L9.34316 7.10457L17.5069 11.824ZM3.25005 12.302L8.69315 7.69063V17.0289L3.25005 12.302ZM9.31822 17.0696V7.49145L17.5512 12.2801L9.31822 17.0696ZM16.8132 6.00958L20.3544 12.0071H18.1076L16.8132 6.00958ZM16.7706 18.6958L20.39 12.5896H17.9838L16.7706 18.6958ZM9.41009 17.5233L17.3568 12.9333L16.0426 19.7071L9.41009 17.5233ZM3.95129 13.6771L7.27879 19.4939L8.37878 17.4883L3.95129 13.6771ZM7.77003 19.7071H14.6175L8.78004 17.8084L7.77003 19.7071Z" fill="#313B59"/>
<path d="M9.08337 8.5482C9.98505 8.5482 10.716 7.8173 10.716 6.9157C10.716 6.0141 9.98505 5.2832 9.08337 5.2832C8.18183 5.2832 7.45093 6.0141 7.45093 6.9157C7.45093 7.8173 8.18183 8.5482 9.08337 8.5482Z" fill="#313B59"/>
<path d="M17.948 14.0568C19.0338 14.0568 19.9142 13.1765 19.9142 12.0905C19.9142 11.0046 19.0338 10.1244 17.948 10.1244C16.8619 10.1244 15.9817 11.0046 15.9817 12.0905C15.9817 13.1765 16.8619 14.0568 17.948 14.0568Z" fill="#313B59"/>
<path d="M9.08356 8.0669C9.7194 8.0669 10.2349 7.55147 10.2349 6.91565C10.2349 6.27984 9.7194 5.7644 9.08356 5.7644C8.4478 5.7644 7.93237 6.27984 7.93237 6.91565C7.93237 7.55147 8.4478 8.0669 9.08356 8.0669Z" fill="#313B59"/>
<path d="M10.7168 17.3351C10.7168 18.311 9.92582 19.102 8.94997 19.102C7.97416 19.102 7.18311 18.311 7.18311 17.3351C7.18311 16.3593 7.97416 15.5683 8.94997 15.5683C9.92582 15.5683 10.7168 16.3593 10.7168 17.3351Z" fill="#313B59"/>
<path d="M17.9478 13.4768C18.7134 13.4768 19.334 12.8562 19.334 12.0906C19.334 11.3251 18.7134 10.7044 17.9478 10.7044C17.1822 10.7044 16.5615 11.3251 16.5615 12.0906C16.5615 12.8562 17.1822 13.4768 17.9478 13.4768Z" fill="#313B59"/>
</svg>

<svg xmlns="http://www.w3.org/2000/svg" width="24" height="24" fill="none" viewBox="0 0 24 24">
    <path fill="#313B59" fill-rule="evenodd" d="M6.939 3.25h10.04L22 11.986l-5.02 8.764H6.938L2 11.986zm.785 1.458h7.194L9.091 6.78zm-.404.38-3.439 5.87 4.592-3.823zm10.187 6.736-1.413-6.786-6.75 2.067zm-14.257.478 5.443-4.611v9.338zm6.068 4.768V7.49l8.233 4.79zm7.495-11.06 3.541 5.997h-2.246zm-.042 12.686 3.619-6.106h-2.406zm-7.36-1.173 7.946-4.59-1.314 6.774zm-5.46-3.846 3.328 5.817 1.1-2.006zm3.819 6.03h6.848L8.78 17.808z" clip-rule="evenodd"/>
    <path fill="#313B59" d="M9.083 8.548a1.633 1.633 0 1 0 0-3.265 1.633 1.633 0 0 0 0 3.265m8.865 5.509a1.966 1.966 0 1 0 0-3.933 1.966 1.966 0 0 0 0 3.933"/>
    <path fill="#313B59" d="M9.084 8.067a1.151 1.151 0 1 0 0-2.303 1.151 1.151 0 0 0 0 2.303m1.633 9.268a1.767 1.767 0 1 1-3.534 0 1.767 1.767 0 0 1 3.534 0m7.231-3.858a1.386 1.386 0 1 0 0-2.773 1.386 1.386 0 0 0 0 2.773"/>
</svg>
